!!!COM:	Johannes Ockeghem
!!!CDT:	~1425-1497/02/06
!!!OPR:	Missa Quinti toni
!!!ONM:	1
!!!OTL:	Kyrie
!!!AGN:	Mass; Kyrie
!!!SCT:	Ock1012a
!!!SCA:	Ock1012a
!!!voices:	3
!!!voices-OPR:	3
**kern	**kern	**kern
*staff3	*staff2	*staff1
*Ivox	*Ivox	*Ivox
*I"Contratenor	*I"Tenor	*I"Discantus
*I'Ct	*I'T	*I'D
*>[A,B,C]	*>[A,B,C]	*>[A,B,C]
*>A	*>A	*>A
*clefF4	*clefGv2	*clefG2
*k[b-]	*k[b-]	*k[]
*M2/1	*M2/1	*M2/1
*met(C)	*met(C)	*met(C)
=1-	=1-	=1-
!!section: Kyrie I
!!!OMD: Kyrie I
1F	0F	1.f
1D	.	.
.	.	2d/
=2	=2	=2
1BB-	1B-	2.d/
.	.	4e/
2r	2A/	2f/
[2E-i\	[2B-\	[2g/
=3	=3	=3
2E-\]	2B-\]	2g/]
2C/	2c\	2e/
1D	1A	1f
=4	=4	=4
2E-i\	1G	2.g/
2C/	.	.
.	.	2e/
2r	1c	.
.	.	4c/
2C/	.	2e/
=5	=5	=5
2BB-/	2d\	2f/
2.C/	1c	2c/
.	.	1d
4BB-/	.	.
2GG/	2Bni\	.
=6	=6	=6
2r	1c	2r
2C/	.	2c/
2BB-/	2r	2d/
2AA/	2c\	2e/
=7	=7	=7
2BB-/	2d\	4d/
.	.	2f/
2GG/	2e\	.
.	.	4g/
1FF	1f	2.a/
.	.	4b\
=8	=8	=8
2r	2e\	1cc
1C	1c	.
.	.	2a/
2C/	2e\	[2g/
=9	=9	=9
1BB-	2d\	4g/]
.	.	4f/
.	2.g\	2d/
2C/	.	2c/
.	4e\	.
2BB-/	[2f\	2d/
=10	=10	=10
1AA	4f\]	2c/
.	4e\	.
.	2c\	1cc
1GG	1d	.
.	.	2b\
=11	=11	=11
2r	2c\	1cc
2C/	2A/	.
2D\	2B-\	2r
2E\	2G/	[2cc\
=12	=12	=12
1F	1F	2cc\]
.	.	2a/
2E\	2G/	2b-i\
[2F\	2F/	2a/
=13	=13	=13
4F\]	2A/	1f
4E\	.	.
4D\	1B-	.
4C/	.	.
2BB-/	.	2g/
2AA/	2c\	2a/
=14	=14	=14
2BB-/	2d\	2f/
2GG/	2B-\	2b-i\
2FF/	1c	2a/
2C/	.	[2g/
=15	=15	=15
1D	1F	2g/]
.	.	1f
1C	1G	.
.	.	2e/
=16	=16	=16
0FFl	0Fl	0fl
!!LO:LB:i:g=z
=17||	=17||	=17||
*>B	*>B	*>B
*clefF4	*clefGv2	*clefG2
*k[b-]	*k[b-]	*k[b-]
*M2/1	*M2/1	*M2/1
*met(C)	*met(C)	*met(C)
!!section: Christe
!!!OMD: Christe
0r	1B-	1d
.	1F	1c
=18	=18	=18
1BB-	1G	1B-
1FF	1F	2r
.	.	2f/
=19	=19	=19
1GG	2r	2d/
.	2B-\	2B-/
1FF	2A/	1c
.	2F/	.
=20	=20	=20
2r	1G	1B-
2BB-/	.	.
2AA/	1F	2c/
2FF/	.	2A/
=21	=21	=21
1GG	1E	1G
1FF	1F	1A
=22	=22	=22
0BB-	2r	2F/
.	2F/	2.B-/
.	1B-	.
.	.	4c/
.	.	2d/
=23	=23	=23
2FF/	2A/	2c/
2BB-/	2G/	2B-/
2D\	2F/	2f/
2E\	[2B-\	2e/
=24	=24	=24
1F	2B-\]	1c
.	2A/	.
2r	2B-\	2B-/
2BB-/	[2d\	2f/
=25	=25	=25
2AA/	4d\]	2g/
.	4e\	.
2FF/	2.f\	2.a/
2F\	.	.
.	4d\	4f/
2E-i\	2e-i\	2g/
=26	=26	=26
2D\	2B-\	2f/
2BB-/	2d\	1b-
1F	1c	.
.	.	2a/
=27	=27	=27
1BB-	2B-\	1b-
.	2G/	.
[1D	1F	2r
.	.	2a/
=28	=28	=28
2D\]	2.B-\	2f/
2E-i\	.	2.g/
.	4c\	.
2D\	1d	.
.	.	4f/
[2BB-/	.	[2d/
=29	=29	=29
4BB-/]	0B-	4d/]
4C/	.	4e-i/
4D\	.	4f/
8C/L	.	8e-i/L
8D/J	.	8f/J
2E-i\	.	2g/
4D\	.	4f/
4BB-/	.	4d/
=30	=30	=30
2AA/	2c\	2c/
2C/	1c	2e-i/
1GG	.	1d
.	2Bni\	.
=31	=31	=31
0Cl	0cl	0cl
!!LO:LB:i:g=z
=32||	=32||	=32||
*>C	*>C	*>C
*clefF4	*clefGv2	*clefG2
*k[b-e-]	*k[b-]	*k[b-]
*M2/1	*M2/1	*M2/1
*met(C)	*met(C)	*met(C)
!!section: Kyrie II
!!!OMD: Kyrie II
1F	1c	1a
2D\	1d	2f/
2BB-/	.	[2b-\
=33	=33	=33
2r	2c\	4b-\]
.	.	4a/
1E-	4B-\	4g/
.	4A/	4f/
.	2B-\	2g/
2C/	2c\	[2a/
=34	=34	=34
1D	1F	2a/]
.	.	1f
1C	1G	.
.	.	2e/
=35	=35	=35
2r	1F	1f
2D\	.	.
1C	2r	1e
.	[2c\	.
=36	=36	=36
1GG	2c\]	1d
.	2B-\	.
1C	1e-	2r
.	.	[2g/
=37	=37	=37
1BB-	1d	2g/]
.	.	2f/
2r	1c	1e
[2C/	.	.
=38	=38	=38
4C/]	2r	1d
4AA/	.	.
2BB-/	2f\	.
2C/	2e\	2c/
2BB-/	[2d\	[2f/
=39	=39	=39
2D\	2d\]	2f/]
2E-\	2B-\	2g/
2F\	2A/	2a/
2G\	2G/	[2b-\
=40	=40	=40
2E-\	1c	4b-\]
.	.	4a/
2F\	.	1a
2r	1B-	.
2BB-/	.	2g/
=41	=41	=41
1F	1A	2a/
.	.	2cc\
2G\	2G/	2b-\
2F\	[2A/	[2a/
=42	=42	=42
1D	2A/]	2a/]
.	2B-\	2f/
2.C/	1c	2.e/
4AA/	.	4c/
=43	=43	=43
2GG/	2B-\	2d/
1AA	2A/	1c
.	1F	.
2FF/	.	2A/
=44	=44	=44
4BB-/	2G/	2B-/
4C/	.	.
2.D\	2.F/	2A/
.	.	2.F/
4E-\	4G/	.
[2F\	4A/	.
.	4B-\	4G/
=45	=45	=45
2F\]	2.c\	4A/
.	.	4B-/
2C/	.	2c/
.	4A/	.
2BB-/	2B-\	2d/
[2F\	[2A/	2c/
=46	=46	=46
2F\]	2A/]	2.f/
1D	2.d\	.
.	.	4g/
.	.	2.a/
.	4c\	.
2F\	2d\	.
.	.	4f/
=47	=47	=47
2C/	4c\	2e/
.	4A/	.
4BB-/	2B-\	2.g/
2E-\	.	.
.	2c\	.
4F\	.	4f/
[2D\	2F/	[2a/
=48	=48	=48
2D\]	1A	4a/]
.	.	4f/
2F\	.	1f
1C	1G	.
.	.	2e/
=49	=49	=49
0FFl	0Fl	0fl
==	==	==
*-	*-	*-
!!!RDF**kern: l=long note in original notation
!!!RDF**kern: i=editorial accidental
!!!RDF**kern: V=start of tuplet marker
!!!RDF**kern: Z=end of tuplet marker
!!!ENC:	Chris Gage 08-06-2012
!!!END:	2012/08/09/
!!!EED:	Jesse Rodin
!!!EEV:	2012/08/12/
!!!ONB:	Translated from MusicXML and edited on 2012/08/12/ by Craig Sapp
!!muse2ps: T^@{OPR}^u^@{ONM}{. }@{OTL}^C^@{COM}^i2I150v95,95,150Q16
